X: 45
T:Popcorn Reel
R:Reel
M:2/4
L:1/16
K:E
c|B2GB EBGB|EBGB cFFc|B2GB EBGB|Bcef geec|
B2GB EBGB|EBGB cFFc|B2GB EBGB|Bcef gee:|
|:e|Bege bege|bege aff2|Bege bege|Bcef gee2|
Bege bege|bege aff2|gbfg e2ec|Bcef gee:|
